;FLAVOR:Marlin
;TIME:10106
;Filament used: 6.7688m
;Layer height: 0.15
;MINX:94.219
;MINY:57.781
;MINZ:0.2
;MAXX:155.781
;MAXY:152.219
;MAXZ:8.75
;TARGET_MACHINE.NAME:Prusa i3 Mk3/Mk3s
;POSTPROCESSED
;  [FilamentChange]
;  [FilamentChange]
;Generated with Cura_SteamEngine 5.7.1
M82 ;absolute extrusion mode
G21 ; set units to millimeters
G90 ; use absolute positioning
M82 ; absolute extrusion mode
M104 S200 ; set extruder temp
M140 S60 ; set bed temp
M190 S60 ; wait for bed temp
M109 S200 ; wait for extruder temp
G28 W ; home all without mesh bed level
G80 ; mesh bed leveling
G92 E0.0 ; reset extruder distance position
G1 Y-3.0 F1000.0 ; go outside print area
G1 X60.0 E9.0 F1000.0 ; intro line
G1 X100.0 E21.5 F1000.0 ; intro line
G92 E0.0 ; reset extruder distance position
G92 E0
G92 E0
G1 F2100 E-0.8
;LAYER_COUNT:58
;LAYER:0
M107
G0 F3600 X94.603 Y59.896 Z0.2
;TYPE:SKIRT
G1 F2100 E0
G1 F1800 X94.875 Y59.47 E0.01681
G1 X95.205 Y59.097 E0.03338
G1 X95.625 Y58.691 E0.0528
G1 X96.015 Y58.37 E0.0696
G1 X96.451 Y58.114 E0.08642
G1 X96.922 Y57.929 E0.10325
G1 X97.522 Y57.798 E0.12368
G1 X98.407 Y57.782 E0.15312
G1 X151.493 Y57.781 E1.91877
G1 X152.21 Y57.791 E1.94261
G1 X152.713 Y57.838 E1.95942
G1 X153.203 Y57.964 E1.97625
G1 X153.667 Y58.165 E1.99306
G1 X154.093 Y58.437 E2.00987
G1 X154.469 Y58.77 E2.02658
G1 X154.874 Y59.19 E2.04599
G1 X155.195 Y59.58 E2.06279
G1 X155.45 Y60.016 E2.07959
G1 X155.634 Y60.488 E2.09643
G1 X155.741 Y60.982 E2.11325
G1 X155.778 Y61.641 E2.1352
G1 X155.781 Y147.932 E5.00525
G1 X155.771 Y148.634 E5.0286
G1 X155.724 Y149.137 E5.0454
G1 X155.598 Y149.627 E5.06223
G1 X155.396 Y150.09 E5.07903
G1 X155.054 Y150.629 E5.10026
G1 X154.421 Y151.265 E5.13011
G1 X154.037 Y151.594 E5.14693
G1 X153.606 Y151.859 E5.16376
G1 X153.139 Y152.052 E5.18056
G1 X152.517 Y152.202 E5.20184
G1 X151.593 Y152.218 E5.23258
G1 X98.506 Y152.219 E6.99826
G1 X97.803 Y152.209 E7.02164
G1 X97.3 Y152.162 E7.03845
G1 X96.81 Y152.036 E7.05528
G1 X96.347 Y151.834 E7.07208
G1 X95.804 Y151.489 E7.09347
G1 X95.165 Y150.849 E7.12355
G1 X94.837 Y150.464 E7.14038
G1 X94.574 Y150.032 E7.1572
G1 X94.382 Y149.564 E7.17402
G1 X94.267 Y149.072 E7.19083
G1 X94.222 Y148.586 E7.20706
G1 X94.219 Y62.069 E10.08463
G1 X94.229 Y61.353 E10.10844
G1 X94.276 Y60.85 E10.12525
G1 X94.402 Y60.36 E10.14207
G1 X94.603 Y59.896 E10.15889
G1 F2100 E9.35889
;MESH:keychain.stl
G0 F3600 X97.079 Y61.722
G0 X98.157 Y61.721
G0 X98.86 Y62.458
G0 X99.091 Y62.648
;TYPE:WALL-INNER
G1 F2100 E10.15889
G1 F1800 X99.671 Y62.167 E10.18395
G1 X100.159 Y61.905 E10.20238
G1 X98.34 Y61.904 E10.26288
G1 X98.341 Y63.735 E10.32378
G1 X98.618 Y63.22 E10.34323
G1 X99.091 Y62.648 E10.36791
G0 F3600 X98.86 Y62.458
G0 X98.212 Y64.622
G0 X98.212 Y66.043
G0 X98.756 Y67.356
G0 X99.656 Y68.275
G0 X101.756 Y69.434
G0 X101.785 Y69.135
G1 F1800 X101.036 Y69.059 E10.39295
G1 X100.324 Y68.845 E10.41768
G1 X99.675 Y68.5 E10.44213
G1 X99.094 Y68.024 E10.46711
G1 X98.615 Y67.436 E10.49233
G1 X98.34 Y66.922 E10.51172
G1 X98.344 Y148.092 E13.21145
G1 X151.656 Y148.092 E14.98461
G1 X151.656 Y61.904 E17.85124
G1 X103.405 Y61.905 E19.45607
G1 X103.937 Y62.204 E19.47637
G1 X104.471 Y62.642 E19.49934
G1 X104.948 Y63.217 E19.52419
G1 X105.297 Y63.872 E19.54887
G1 X105.511 Y64.584 E19.5736
G1 X105.587 Y65.332 E19.59861
G1 X105.511 Y66.082 E19.62368
G1 X105.297 Y66.789 E19.64825
G1 X104.934 Y67.458 E19.67356
G1 X104.469 Y68.021 E19.69785
G1 X103.877 Y68.504 E19.72326
G1 X103.241 Y68.842 E19.74722
G1 X102.528 Y69.059 E19.77201
G1 X101.785 Y69.135 E19.79685
G0 F3600 X101.805 Y68.731
;TYPE:WALL-OUTER
G1 F1800 X101.098 Y68.66 E19.82048
G1 X100.461 Y68.465 E19.84264
G1 X99.913 Y68.173 E19.86329
G1 X99.364 Y67.723 E19.8869
G1 X98.943 Y67.2 E19.90923
G1 X98.648 Y66.651 E19.92996
G1 F1682.2 X98.419 Y65.999 E19.95455
G1 F1636.4 X98.373 Y65.352 E19.97828
G1 F1643.8 X98.418 Y64.682 E20.00274
G1 F1690.1 X98.647 Y64.008 E20.02796
G1 F1800 X98.943 Y63.46 E20.04867
G1 X99.393 Y62.913 E20.07223
G1 X99.912 Y62.492 E20.09446
G1 X100.46 Y62.195 E20.11519
G1 F1698.1 X101.117 Y61.971 E20.13966
G1 F1670.5 X101.804 Y61.925 E20.16434
G1 F1674.4 X102.43 Y61.97 E20.18678
G1 F1706.2 X103.104 Y62.195 E20.21171
G1 F1800 X103.683 Y62.513 E20.23368
G1 X104.199 Y62.94 E20.25596
G1 X104.603 Y63.428 E20.27703
G1 X104.917 Y64.009 E20.29899
G1 X105.119 Y64.683 E20.3224
G1 X105.183 Y65.353 E20.34478
G1 X105.112 Y66.018 E20.36703
G1 X104.925 Y66.634 E20.38844
G1 X104.618 Y67.211 E20.41018
G1 X104.186 Y67.738 E20.43284
G1 X103.663 Y68.166 E20.45532
G1 X103.086 Y68.473 E20.47706
G1 X102.429 Y68.667 E20.49984
G1 X101.805 Y68.731 E20.5207
G0 F3600 X101.607 Y68.712
G0 X101.539 Y69.413
G0 X99.761 Y68.361
G0 X98.244 Y66.716
G0 X97.94 Y66.716
G1 F1800 X97.944 Y148.492 E23.24058
G1 X152.056 Y148.492 E25.04036
G1 X152.056 Y61.504 E27.93359
G1 X103.165 Y61.505 E29.55971
G1 F1706.2 X102.451 Y61.526 E29.58478
G1 F1674.4 X101.745 Y61.511 E29.61002
G1 F1670.5 X101.079 Y61.528 E29.6339
G1 F1698.1 X100.399 Y61.505 E29.65789
G1 F1800 X97.94 Y61.504 E29.73967
G1 X97.941 Y63.945 E29.82086
G1 F1690.1 X97.966 Y64.661 E29.84624
G1 F1647.6 X97.951 Y65.333 E29.87066
G1 F1640.1 X97.968 Y66.038 E29.89641
G1 F1682.2 X97.94 Y66.716 E29.92056
G0 F3600 X97.94 Y66.916
G0 X98.244 Y66.916
G0 X99.209 Y67.908
G0 X101.805 Y69.511
;TYPE:SKIN
G1 F1800 X102.627 Y69.424 E29.94805
G1 X103.382 Y69.193 E29.97431
G1 X104.075 Y68.826 E30.00039
G1 X104.741 Y68.287 E30.02889
G1 X105.278 Y67.623 E30.05729
G1 X105.645 Y66.93 E30.08337
G1 X105.876 Y66.179 E30.10951
G1 X105.964 Y65.349 E30.13727
G1 X105.884 Y64.519 E30.165
G1 X105.641 Y63.709 E30.19313
G1 X105.251 Y62.984 E30.22051
G1 X104.673 Y62.285 E30.25068
G1 X151.276 Y62.284 E31.8007
G1 X151.276 Y147.712 E34.64204
G1 X98.724 Y147.712 E36.38993
G1 X98.72 Y68.168 E39.03558
G1 X98.837 Y68.308 E39.04164
G1 X99.481 Y68.829 E39.0692
G1 X100.157 Y69.189 E39.09467
G1 X100.975 Y69.432 E39.12305
G1 X101.805 Y69.511 E39.15078
G0 F3600 X150.731 Y62.484
G1 F1800 X151.076 Y62.829 E39.16701
G0 F3600 X151.076 Y63.395
G1 F1800 X150.165 Y62.484 E39.20986
G0 F3600 X149.6 Y62.484
G1 F1800 X151.076 Y63.961 E39.27931
G0 F3600 X151.076 Y64.526
G1 F1800 X149.034 Y62.484 E39.37536
G0 F3600 X148.468 Y62.484
G1 F1800 X151.076 Y65.092 E39.49803
G0 F3600 X151.076 Y65.658
G1 F1800 X147.903 Y62.484 E39.6473
G0 F3600 X147.337 Y62.484
G1 F1800 X151.076 Y66.223 E39.82317
G0 F3600 X151.076 Y66.789
G1 F1800 X146.771 Y62.484 E40.02567
G0 F3600 X146.206 Y62.484
G1 F1800 X151.076 Y67.355 E40.25476
G0 F3600 X151.076 Y67.92
G1 F1800 X145.64 Y62.484 E40.51045
G0 F3600 X145.074 Y62.484
G1 F1800 X151.076 Y68.486 E40.79277
G0 F3600 X151.076 Y69.052
G1 F1800 X144.509 Y62.484 E41.10168
G0 F3600 X143.943 Y62.484
G1 F1800 X151.076 Y69.617 E41.4372
G0 F3600 X151.076 Y70.183
G1 F1800 X143.377 Y62.484 E41.79934
G0 F3600 X142.812 Y62.484
G1 F1800 X151.076 Y70.749 E42.18807
G0 F3600 X151.076 Y71.315
G1 F1800 X142.246 Y62.484 E42.60343
G0 F3600 X141.68 Y62.484
G1 F1800 X151.076 Y71.88 E43.04539
G0 F3600 X151.076 Y72.446
G1 F1800 X141.114 Y62.484 E43.51397
G0 F3600 X140.549 Y62.484
G1 F1800 X151.076 Y73.012 E44.00916
G0 F3600 X151.076 Y73.577
G1 F1800 X139.983 Y62.484 E44.53094
G0 F3600 X139.417 Y62.484
G1 F1800 X151.076 Y74.143 E45.07934
G0 F3600 X151.076 Y74.709
G1 F1800 X138.852 Y62.484 E45.65434
G0 F3600 X138.286 Y62.484
G1 F1800 X151.076 Y75.274 E46.25595
G0 F3600 X151.076 Y75.84
G1 F1800 X137.72 Y62.484 E46.88417
G0 F3600 X137.155 Y62.484
G1 F1800 X151.076 Y76.406 E47.539
G0 F3600 X151.076 Y76.971
G1 F1800 X136.589 Y62.484 E48.22042
G0 F3600 X136.023 Y62.484
G1 F1800 X151.076 Y77.537 E48.92847
G0 F3600 X151.076 Y78.103
G1 F1800 X135.458 Y62.484 E49.66311
G0 F3600 X134.892 Y62.484
G1 F1800 X151.076 Y78.668 E50.42436
G0 F3600 X151.076 Y79.234
G1 F1800 X134.326 Y62.484 E51.21223
G0 F3600 X133.761 Y62.484
G1 F1800 X151.076 Y79.8 E52.02669
G0 F3600 X151.076 Y80.366
G1 F1800 X133.195 Y62.484 E52.86779
G0 F3600 X132.629 Y62.484
G1 F1800 X151.076 Y80.931 E53.73548
G0 F3600 X151.076 Y81.497
G1 F1800 X132.064 Y62.484 E54.62977
G0 F3600 X131.498 Y62.484
G1 F1800 X151.076 Y82.063 E55.55068
G0 F3600 X151.076 Y82.628
G1 F1800 X130.932 Y62.484 E56.49819
G0 F3600 X130.366 Y62.484
G1 F1800 X151.076 Y83.194 E57.47233
G0 F3600 X151.076 Y83.76
G1 F1800 X129.801 Y62.484 E58.47306
G0 F3600 X129.235 Y62.484
G1 F1800 X151.076 Y84.325 E59.50039
G0 F3600 X151.076 Y84.891
G1 F1800 X128.669 Y62.484 E60.55435
G0 F3600 X128.104 Y62.484
G1 F1800 X151.076 Y85.457 E61.63491
G0 F3600 X151.076 Y86.022
G1 F1800 X127.538 Y62.484 E62.74206
G0 F3600 X126.972 Y62.484
G1 F1800 X151.076 Y86.588 E63.87584
G0 F3600 X151.076 Y87.154
G1 F1800 X126.407 Y62.484 E65.03622
G0 F3600 X125.841 Y62.484
G1 F1800 X151.076 Y87.719 E66.22319
G0 F3600 X151.076 Y88.285
G1 F1800 X125.275 Y62.484 E67.43679
G0 F3600 X124.71 Y62.484
G1 F1800 X151.076 Y88.851 E68.67699
G0 F3600 X151.076 Y89.416
G1 F1800 X124.144 Y62.484 E69.94379
G0 F3600 X123.578 Y62.484
G1 F1800 X151.076 Y89.982 E71.23721
G0 F3600 X151.076 Y90.548
G1 F1800 X123.013 Y62.484 E72.55723
G0 F3600 X122.447 Y62.484
G1 F1800 X151.076 Y91.114 E73.90388
G0 F3600 X151.076 Y91.679
G1 F1800 X121.881 Y62.484 E75.27712
G0 F3600 X121.315 Y62.484
G1 F1800 X151.076 Y92.245 E76.67699
G0 F3600 X151.076 Y92.811
G1 F1800 X120.75 Y62.484 E78.10345
G0 F3600 X120.184 Y62.484
G1 F1800 X151.076 Y93.376 E79.55652
G0 F3600 X151.076 Y93.942
G1 F1800 X119.618 Y62.484 E81.03621
G0 F3600 X119.053 Y62.484
G1 F1800 X151.076 Y94.508 E82.54249
G0 F3600 X151.076 Y95.073
G1 F1800 X118.487 Y62.484 E84.07538
G0 F3600 X117.921 Y62.484
G1 F1800 X151.076 Y95.639 E85.63489
G0 F3600 X151.076 Y96.205
G1 F1800 X117.356 Y62.484 E87.221
G0 F3600 X116.79 Y62.484
G1 F1800 X151.076 Y96.77 E88.83371
G0 F3600 X151.076 Y97.336
G1 F1800 X116.224 Y62.484 E90.47304
G0 F3600 X115.659 Y62.484
G1 F1800 X151.076 Y97.902 E92.13897
G0 F3600 X151.076 Y98.467
G1 F1800 X115.093 Y62.484 E93.8315
G0 F3600 X114.527 Y62.484
G1 F1800 X151.076 Y99.033 E95.55065
G0 F3600 X151.076 Y99.599
G1 F1800 X113.962 Y62.484 E97.2964
G0 F3600 X113.396 Y62.484
G1 F1800 X151.076 Y100.165 E99.06878
G0 F3600 X151.076 Y100.73
G1 F1800 X112.83 Y62.484 E100.86775
G0 F3600 X112.265 Y62.484
G1 F1800 X151.076 Y101.296 E102.69333
G0 F3600 X151.076 Y101.862
G1 F1800 X111.699 Y62.484 E104.54552
G0 F3600 X111.133 Y62.484
G1 F1800 X151.076 Y102.427 E106.42432
G0 F3600 X151.076 Y102.993
G1 F1800 X110.567 Y62.484 E108.32974
G0 F3600 X110.002 Y62.484
G1 F1800 X151.076 Y103.559 E110.26176
G0 F3600 X151.076 Y104.124
G1 F1800 X109.436 Y62.484 E112.22038
G0 F3600 X108.87 Y62.484
G1 F1800 X151.076 Y104.69 E114.20562
G0 F3600 X151.076 Y105.256
G1 F1800 X108.305 Y62.484 E116.21746
G0 F3600 X107.739 Y62.484
G1 F1800 X151.076 Y105.821 E118.2559
G0 F3600 X151.076 Y106.387
G1 F1800 X107.173 Y62.484 E120.32096
G0 F3600 X106.608 Y62.484
G1 F1800 X151.076 Y106.953 E122.41262
G0 F3600 X151.076 Y107.518
G1 F1800 X106.042 Y62.484 E124.53088
G0 F3600 X105.476 Y62.484
G1 F1800 X151.076 Y108.084 E126.67577
G0 F3600 X151.076 Y108.65
G1 F1800 X105.563 Y63.136 E128.81658
G1 X105.493 Y63.066
G0 F3600 X105.975 Y64.114
G1 F1800 X151.076 Y109.215 E130.938
G0 F3600 X151.076 Y109.781
G1 F1800 X106.115 Y64.82 E133.05282
G0 F3600 X106.157 Y65.428
G1 F1800 X151.076 Y110.347 E135.16568
G0 F3600 X151.076 Y110.913
G1 F1800 X106.104 Y65.941 E137.28102
G0 F3600 X106.013 Y66.415
G1 F1800 X151.076 Y111.478 E139.40065
G0 F3600 X151.076 Y112.044
G1 F1800 X105.88 Y66.848 E141.52653
G0 F3600 X105.708 Y67.241
G1 F1800 X151.076 Y112.61 E143.66052
G0 F3600 X151.076 Y113.175
G1 F1800 X105.512 Y67.611 E145.80371
G0 F3600 X105.278 Y67.942
G1 F1800 X151.076 Y113.741 E147.95793
G0 F3600 X151.076 Y114.307
G1 F1800 X105.024 Y68.255 E150.12408
G0 F3600 X104.744 Y68.54
G1 F1800 X151.076 Y114.872 E152.30339
G0 F3600 X151.076 Y115.438
G1 F1800 X104.432 Y68.794 E154.49738
G0 F3600 X104.108 Y69.036
G1 F1800 X151.076 Y116.004 E156.70662
G0 F3600 X151.076 Y116.569
G1 F1800 X103.738 Y69.231 E158.93325
G0 F3600 X103.352 Y69.411
G1 F1800 X151.076 Y117.135 E161.17804
G0 F3600 X151.076 Y117.701
G1 F1800 X102.919 Y69.544 E163.4432
G0 F3600 X102.456 Y69.646
G1 F1800 X151.076 Y118.266 E165.73013
G0 F3600 X151.076 Y118.832
G1 F1800 X101.942 Y69.698 E168.04125
G0 F3600 X101.35 Y69.671
G1 F1800 X151.076 Y119.398 E170.38023
G0 F3600 X151.076 Y119.963
G1 F1800 X100.659 Y69.547 E172.75167
G1 X100.589 Y69.477
G0 F3600 X99.742 Y69.195
G1 F1800 X151.076 Y120.529 E175.16626
G0 F3600 X151.076 Y121.095
G1 F1800 X98.92 Y68.939 E177.61952
G0 F3600 X98.92 Y69.504
G1 F1800 X151.076 Y121.661 E180.0728
G0 F3600 X151.076 Y122.226
G1 F1800 X98.92 Y70.07 E182.52606
G0 F3600 X98.92 Y70.636
G1 F1800 X151.076 Y122.792 E184.97932
G0 F3600 X151.076 Y123.358
G1 F1800 X98.92 Y71.201 E187.4326
G0 F3600 X98.92 Y71.767
G1 F1800 X151.076 Y123.923 E189.88586
G0 F3600 X151.076 Y124.489
G1 F1800 X98.92 Y72.333 E192.33912
G0 F3600 X98.92 Y72.898
G1 F1800 X151.076 Y125.055 E194.7924
G0 F3600 X151.076 Y125.62
G1 F1800 X98.92 Y73.464 E197.24566
G0 F3600 X98.92 Y74.03
G1 F1800 X151.076 Y126.186 E199.69891
G0 F3600 X151.076 Y126.752
G1 F1800 X98.92 Y74.596 E202.15217
G0 F3600 X98.92 Y75.161
G1 F1800 X151.076 Y127.317 E204.60543
G0 F3600 X151.076 Y127.883
G1 F1800 X98.92 Y75.727 E207.05869
G0 F3600 X98.92 Y76.293
G1 F1800 X151.076 Y128.449 E209.51195
G0 F3600 X151.076 Y129.014
G1 F1800 X98.92 Y76.858 E211.96521
G0 F3600 X98.92 Y77.424
G1 F1800 X151.076 Y129.58 E214.41846
G0 F3600 X151.076 Y130.146
G1 F1800 X98.92 Y77.99 E216.87172
G0 F3600 X98.92 Y78.555
G1 F1800 X151.076 Y130.712 E219.325
G0 F3600 X151.076 Y131.277
G1 F1800 X98.92 Y79.121 E221.77826
G0 F3600 X98.92 Y79.687
G1 F1800 X151.076 Y131.843 E224.23152
G0 F3600 X151.076 Y132.409
G1 F1800 X98.92 Y80.252 E226.6848
G0 F3600 X98.92 Y80.818
G1 F1800 X151.076 Y132.974 E229.13806
G0 F3600 X151.076 Y133.54
G1 F1800 X98.92 Y81.384 E231.59132
G0 F3600 X98.921 Y81.95
G1 F1800 X151.076 Y134.106 E234.04455
G0 F3600 X151.076 Y134.671
G1 F1800 X98.921 Y82.516 E236.49777
G0 F3600 X98.921 Y83.082
G1 F1800 X151.076 Y135.237 E238.95098
G0 F3600 X151.076 Y135.803
G1 F1800 X98.921 Y83.647 E241.40421
G0 F3600 X98.921 Y84.213
G1 F1800 X151.076 Y136.368 E243.85742
G0 F3600 X151.076 Y136.934
G1 F1800 X98.921 Y84.779 E246.31063
G0 F3600 X98.921 Y85.344
G1 F1800 X151.076 Y137.5 E248.76387
G0 F3600 X151.076 Y138.065
G1 F1800 X98.921 Y85.91 E251.21708
G0 F3600 X98.921 Y86.476
G1 F1800 X151.076 Y138.631 E253.67029
G0 F3600 X151.076 Y139.197
G1 F1800 X98.921 Y87.041 E256.12353
G0 F3600 X98.921 Y87.607
G1 F1800 X151.076 Y139.762 E258.57674
G0 F3600 X151.076 Y140.328
G1 F1800 X98.921 Y88.173 E261.02995
G0 F3600 X98.921 Y88.738
G1 F1800 X151.076 Y140.894 E263.48318
G0 F3600 X151.076 Y141.46
G1 F1800 X98.921 Y89.304 E265.93642
G0 F3600 X98.921 Y89.87
G1 F1800 X151.076 Y142.025 E268.38963
G0 F3600 X151.076 Y142.591
G1 F1800 X98.921 Y90.435 E270.84287
G0 F3600 X98.921 Y91.001
G1 F1800 X151.076 Y143.157 E273.2961
G0 F3600 X151.076 Y143.722
G1 F1800 X98.921 Y91.567 E275.74931
G0 F3600 X98.921 Y92.132
G1 F1800 X151.076 Y144.288 E278.20255
G0 F3600 X151.076 Y144.854
G1 F1800 X98.921 Y92.698 E280.65578
G0 F3600 X98.921 Y93.264
G1 F1800 X151.076 Y145.419 E283.10899
G0 F3600 X151.076 Y145.985
G1 F1800 X98.921 Y93.83 E285.5622
G0 F3600 X98.921 Y94.395
G1 F1800 X151.076 Y146.551 E288.01544
G0 F3600 X151.076 Y147.116
G1 F1800 X98.921 Y94.962 E290.46863
G0 F3600 X98.921 Y95.527
G1 F1800 X150.906 Y147.512 E292.91384
G0 F3600 X150.341 Y147.512
G1 F1800 X98.921 Y96.093 E295.33246
G0 F3600 X98.921 Y96.659
G1 F1800 X149.775 Y147.512 E297.72445
G0 F3600 X149.209 Y147.512
G1 F1800 X98.921 Y97.224 E300.08984
G0 F3600 X98.921 Y97.79
G1 F1800 X148.644 Y147.512 E302.42864
G0 F3600 X148.078 Y147.512
G1 F1800 X98.921 Y98.356 E304.74081
G0 F3600 X98.921 Y98.921
G1 F1800 X147.512 Y147.512 E307.02638
G0 F3600 X146.947 Y147.512
G1 F1800 X98.921 Y99.487 E309.28535
G0 F3600 X98.921 Y100.053
G1 F1800 X146.381 Y147.512 E311.5177
G0 F3600 X145.815 Y147.512
G1 F1800 X98.921 Y100.618 E313.72345
G0 F3600 X98.921 Y101.184
G1 F1800 X145.25 Y147.512 E315.9026
G0 F3600 X144.684 Y147.512
