;FLAVOR:Marlin
;TIME:10522
;Filament used: 6.47764m
;Layer height: 0.15
;MINX:94.219
;MINY:57.781
;MINZ:0.2
;MAXX:155.781
;MAXY:152.219
;MAXZ:8.75
;TARGET_MACHINE.NAME:Prusa i3 Mk3/Mk3s
;POSTPROCESSED
;  [FilamentChange]
;  [FilamentChange]
;Generated with Cura_SteamEngine 5.10.2
G21 ; set units to millimeters
G90 ; use absolute positioning
M82 ; absolute extrusion mode
M104 S200 ; set extruder temp
M140 S60 ; set bed temp
M190 S60 ; wait for bed temp
M109 S200 ; wait for extruder temp
G28 W ; home all without mesh bed level
G80 ; mesh bed leveling
G92 E0.0 ; reset extruder distance position
G1 Y-3.0 F1000.0 ; go outside print area
G1 X60.0 E9.0 F1000.0 ; intro line
G1 X100.0 E21.5 F1000.0 ; intro line
G92 E0.0 ; reset extruder distance position
M82 ;absolute extrusion mode
G92 E0
G92 E0
G1 F2100 E-0.8
;LAYER_COUNT:58
;LAYER:0
M107
G0 F3600 X94.848 Y59.519 Z0.2
;TYPE:SKIRT
G1 F2100 E0
G1 F1800 X95.086 Y59.231 E0.01243
G1 X95.843 Y58.48 E0.04789
G1 X96.417 Y58.13 E0.07025
G1 X96.886 Y57.94 E0.08708
G1 X97.503 Y57.798 E0.10814
G1 X98.407 Y57.782 E0.13821
G1 X151.494 Y57.781 E1.90389
G1 X152.197 Y57.791 E1.92728
G1 X152.7 Y57.838 E1.94408
G1 X153.19 Y57.964 E1.96091
G1 X153.653 Y58.166 E1.97771
G1 X154.177 Y58.514 E1.99863
G1 X154.789 Y59.081 E2.02638
G1 X155.213 Y59.608 E2.04888
G1 X155.464 Y60.046 E2.06567
G1 X155.643 Y60.519 E2.08249
G1 X155.745 Y61.015 E2.09933
G1 X155.778 Y61.607 E2.11905
G1 X155.781 Y147.932 E4.99023
G1 X155.766 Y148.947 E5.024
G1 X155.612 Y149.584 E5.04579
G1 X155.418 Y150.051 E5.06261
G1 X155.152 Y150.481 E5.07943
G1 X154.789 Y150.902 E5.09792
G1 X154.159 Y151.521 E5.12729
G1 X153.583 Y151.87 E5.14969
G1 X153.114 Y152.06 E5.16652
G1 X152.497 Y152.202 E5.18758
G1 X151.593 Y152.218 E5.21765
G1 X98.506 Y152.219 E6.98333
G1 X97.49 Y152.204 E7.01713
G1 X96.853 Y152.05 E7.03893
G1 X96.386 Y151.856 E7.05575
G1 X95.956 Y151.59 E7.07256
G1 X95.617 Y151.313 E7.08712
G1 X94.909 Y150.581 E7.121
G1 X94.576 Y150.036 E7.14224
G1 X94.383 Y149.568 E7.15908
G1 X94.267 Y149.076 E7.17589
G1 X94.222 Y148.585 E7.19229
G1 X94.219 Y62.068 E10.06985
G1 X94.234 Y61.053 E10.10362
G1 X94.388 Y60.416 E10.12541
G1 X94.582 Y59.949 E10.14223
G1 X94.848 Y59.519 E10.15905
G1 F2100 E9.35905
;MESH:keychain.stl
G0 F3600 X97.079 Y61.732
G0 X98.167 Y61.731
G0 X151.346 Y147.812
G0 X151.656 Y148.092
;TYPE:WALL-INNER
G1 F2100 E10.15905
G1 F1800 X151.656 Y61.904 E13.02568
G1 X98.341 Y61.904 E14.79894
G1 X98.344 Y148.092 E17.66556
G1 X151.656 Y148.092 E19.43873
G0 F3600 X152.056 Y148.492
;TYPE:WALL-OUTER
G1 F1800 X152.056 Y61.504 E22.33196
G1 X97.941 Y61.504 E24.13183
G1 X97.944 Y148.492 E27.02507
G1 X152.056 Y148.492 E28.82484
G0 F3600 X152.056 Y148.292
G0 X151.276 Y147.712
;TYPE:SKIN
G1 F1800 X98.724 Y147.712 E30.57273
G1 X98.721 Y62.284 E33.41407
G1 X151.276 Y62.284 E35.16206
G1 X151.276 Y147.712 E38.00341
G0 F3600 X98.924 Y147.007
G1 F1800 X99.429 Y147.512 E38.02716
G0 F3600 X99.995 Y147.512
G1 F1800 X98.924 Y146.441 E38.07754
G0 F3600 X98.924 Y145.875
G1 F1800 X100.56 Y147.512 E38.15451
G0 F3600 X101.126 Y147.512
G1 F1800 X98.924 Y145.31 E38.25809
G0 F3600 X98.924 Y144.744
G1 F1800 X101.692 Y147.512 E38.38828
G0 F3600 X102.258 Y147.512
G1 F1800 X98.924 Y144.178 E38.54511
G0 F3600 X98.924 Y143.613
G1 F1800 X102.823 Y147.512 E38.7285
G0 F3600 X103.389 Y147.512
G1 F1800 X98.924 Y143.047 E38.93852
G0 F3600 X98.924 Y142.481
G1 F1800 X103.955 Y147.512 E39.17517
G0 F3600 X104.52 Y147.512
G1 F1800 X98.924 Y141.916 E39.43838
G0 F3600 X98.924 Y141.35
G1 F1800 X105.086 Y147.512 E39.72823
G0 F3600 X105.652 Y147.512
G1 F1800 X98.924 Y140.784 E40.04469
G0 F3600 X98.924 Y140.219
G1 F1800 X106.217 Y147.512 E40.38773
G0 F3600 X106.783 Y147.512
G1 F1800 X98.924 Y139.653 E40.75739
G0 F3600 X98.924 Y139.087
G1 F1800 X107.349 Y147.512 E41.15368
G0 F3600 X107.914 Y147.512
G1 F1800 X98.924 Y138.522 E41.57654
G0 F3600 X98.924 Y137.956
G1 F1800 X108.48 Y147.512 E42.02603
G0 F3600 X109.046 Y147.512
G1 F1800 X98.924 Y137.39 E42.50214
G0 F3600 X98.924 Y136.824
G1 F1800 X109.611 Y147.512 E43.00484
G0 F3600 X110.177 Y147.512
G1 F1800 X98.924 Y136.259 E43.53415
G0 F3600 X98.924 Y135.693
G1 F1800 X110.743 Y147.512 E44.09008
G0 F3600 X111.309 Y147.512
G1 F1800 X98.924 Y135.127 E44.67263
G0 F3600 X98.924 Y134.562
G1 F1800 X111.874 Y147.512 E45.28176
G0 F3600 X112.44 Y147.512
G1 F1800 X98.924 Y133.996 E45.91751
G0 F3600 X98.924 Y133.43
G1 F1800 X113.006 Y147.512 E46.57988
G0 F3600 X113.571 Y147.512
G1 F1800 X98.924 Y132.865 E47.26883
G0 F3600 X98.924 Y132.299
G1 F1800 X114.137 Y147.512 E47.98441
G0 F3600 X114.703 Y147.512
G1 F1800 X98.924 Y131.733 E48.7266
G0 F3600 X98.924 Y131.168
G1 F1800 X115.268 Y147.512 E49.49537
G0 F3600 X115.834 Y147.512
G1 F1800 X98.924 Y130.602 E50.29077
G0 F3600 X98.924 Y130.036
G1 F1800 X116.4 Y147.512 E51.11279
G0 F3600 X116.965 Y147.512
G1 F1800 X98.924 Y129.471 E51.96138
G0 F3600 X98.924 Y128.905
G1 F1800 X117.531 Y147.512 E52.8366
G0 F3600 X118.097 Y147.512
G1 F1800 X98.924 Y128.339 E53.73844
G0 F3600 X98.924 Y127.773
G1 F1800 X118.662 Y147.512 E54.66687
G0 F3600 X119.228 Y147.512
G1 F1800 X98.924 Y127.208 E55.62191
G0 F3600 X98.924 Y126.642
G1 F1800 X119.794 Y147.512 E56.60357
G0 F3600 X120.359 Y147.512
G1 F1800 X98.923 Y126.076 E57.61186
G0 F3600 X98.923 Y125.51
G1 F1800 X120.925 Y147.512 E58.64676
G0 F3600 X121.491 Y147.512
G1 F1800 X98.923 Y124.944 E59.70829
G0 F3600 X98.923 Y124.379
G1 F1800 X122.057 Y147.512 E60.79642
G0 F3600 X122.622 Y147.512
G1 F1800 X98.923 Y123.813 E61.91115
G0 F3600 X98.923 Y123.247
G1 F1800 X123.188 Y147.512 E63.0525
G0 F3600 X123.754 Y147.512
G1 F1800 X98.923 Y122.682 E64.22045
G0 F3600 X98.923 Y122.116
G1 F1800 X124.319 Y147.512 E65.415
G0 F3600 X124.885 Y147.512
G1 F1800 X98.923 Y121.55 E66.63617
G0 F3600 X98.923 Y120.985
G1 F1800 X125.451 Y147.512 E67.88395
G0 F3600 X126.016 Y147.512
G1 F1800 X98.923 Y120.419 E69.15832
G0 F3600 X98.923 Y119.853
G1 F1800 X126.582 Y147.512 E70.45931
G0 F3600 X127.148 Y147.512
G1 F1800 X98.923 Y119.287 E71.78693
G0 F3600 X98.923 Y118.722
G1 F1800 X127.713 Y147.512 E73.14112
G0 F3600 X128.279 Y147.512
G1 F1800 X98.923 Y118.156 E74.52194
G0 F3600 X98.923 Y117.59
G1 F1800 X128.845 Y147.512 E75.92938
G0 F3600 X129.41 Y147.512
G1 F1800 X98.923 Y117.025 E77.36339
G0 F3600 X98.923 Y116.459
G1 F1800 X129.976 Y147.512 E78.82403
G0 F3600 X130.542 Y147.512
G1 F1800 X98.923 Y115.893 E80.31129
G0 F3600 X98.923 Y115.328
G1 F1800 X131.107 Y147.512 E81.82513
G0 F3600 X131.673 Y147.512
G1 F1800 X98.923 Y114.762 E83.36559
G0 F3600 X98.923 Y114.196
G1 F1800 X132.239 Y147.512 E84.93267
G0 F3600 X132.805 Y147.512
G1 F1800 X98.923 Y113.631 E86.52635
G0 F3600 X98.923 Y113.065
G1 F1800 X133.37 Y147.512 E88.14663
G0 F3600 X133.936 Y147.512
G1 F1800 X98.923 Y112.499 E89.79354
G0 F3600 X98.923 Y111.934
G1 F1800 X134.502 Y147.512 E91.46704
G0 F3600 X135.067 Y147.512
G1 F1800 X98.923 Y111.368 E93.16715
G0 F3600 X98.923 Y110.802
G1 F1800 X135.633 Y147.512 E94.89387
G0 F3600 X136.199 Y147.512
G1 F1800 X98.923 Y110.237 E96.6472
G0 F3600 X98.923 Y109.671
G1 F1800 X136.764 Y147.512 E98.42712
G0 F3600 X137.33 Y147.512
G1 F1800 X98.923 Y109.105 E100.23367
G0 F3600 X98.923 Y108.539
G1 F1800 X137.896 Y147.512 E102.06684
G0 F3600 X138.461 Y147.512
G1 F1800 X98.923 Y107.974 E103.92659
G0 F3600 X98.923 Y107.408
G1 F1800 X139.027 Y147.512 E105.81295
G0 F3600 X139.593 Y147.512
G1 F1800 X98.923 Y106.842 E107.72595
G0 F3600 X98.923 Y106.277
G1 F1800 X140.158 Y147.512 E109.66551
G0 F3600 X140.724 Y147.512
G1 F1800 X98.923 Y105.711 E111.63171
G0 F3600 X98.923 Y105.145
G1 F1800 X141.29 Y147.512 E113.62452
G0 F3600 X141.856 Y147.512
G1 F1800 X98.922 Y104.579 E115.64398
G0 F3600 X98.922 Y104.013
G1 F1800 X142.421 Y147.512 E117.69004
G0 F3600 X142.987 Y147.512
G1 F1800 X98.922 Y103.448 E119.7627
G0 F3600 X98.922 Y102.882
G1 F1800 X143.553 Y147.512 E121.86198
G0 F3600 X144.118 Y147.512
G1 F1800 X98.922 Y102.316 E123.98786
G0 F3600 X98.922 Y101.751
G1 F1800 X144.684 Y147.512 E126.14034
G0 F3600 X145.25 Y147.512
G1 F1800 X98.922 Y101.185 E128.31945
G0 F3600 X98.922 Y100.619
G1 F1800 X145.815 Y147.512 E130.52515
G0 F3600 X146.381 Y147.512
G1 F1800 X98.922 Y100.053 E132.75747
G0 F3600 X98.922 Y99.488
G1 F1800 X146.947 Y147.512 E135.0164
G0 F3600 X147.512 Y147.512
G1 F1800 X98.922 Y98.922 E137.30192
G0 F3600 X98.922 Y98.356
G1 F1800 X148.078 Y147.512 E139.61407
G0 F3600 X148.644 Y147.512
G1 F1800 X98.922 Y97.791 E141.95282
G0 F3600 X98.922 Y97.225
G1 F1800 X149.209 Y147.512 E144.31817
G0 F3600 X149.775 Y147.512
G1 F1800 X98.922 Y96.659 E146.71013
G0 F3600 X98.922 Y96.094
G1 F1800 X150.341 Y147.512 E149.1287
G0 F3600 X150.906 Y147.512
G1 F1800 X98.922 Y95.528 E151.57387
G0 F3600 X98.922 Y94.962
G1 F1800 X151.076 Y147.116 E154.02704
G0 F3600 X151.076 Y146.551
G1 F1800 X98.922 Y94.397 E156.4802
G0 F3600 X98.922 Y93.831
G1 F1800 X151.076 Y145.985 E158.93336
G0 F3600 X151.076 Y145.419
G1 F1800 X98.922 Y93.265 E161.38653
G0 F3600 X98.922 Y92.7
G1 F1800 X151.076 Y144.854 E163.83969
G0 F3600 X151.076 Y144.288
G1 F1800 X98.922 Y92.134 E166.29286
G0 F3600 X98.922 Y91.568
G1 F1800 X151.076 Y143.722 E168.74602
G0 F3600 X151.076 Y143.157
G1 F1800 X98.922 Y91.003 E171.19918
G0 F3600 X98.922 Y90.437
G1 F1800 X151.076 Y142.591 E173.65235
G0 F3600 X151.076 Y142.025
G1 F1800 X98.922 Y89.871 E176.10551
G0 F3600 X98.922 Y89.305
G1 F1800 X151.076 Y141.46 E178.5587
G0 F3600 X151.076 Y140.894
G1 F1800 X98.922 Y88.74 E181.01187
G0 F3600 X98.922 Y88.174
G1 F1800 X151.076 Y140.328 E183.46503
G0 F3600 X151.076 Y139.762
G1 F1800 X98.922 Y87.608 E185.91819
G0 F3600 X98.922 Y87.043
G1 F1800 X151.076 Y139.197 E188.37136
G0 F3600 X151.076 Y138.631
G1 F1800 X98.922 Y86.477 E190.82452
G0 F3600 X98.922 Y85.911
G1 F1800 X151.076 Y138.065 E193.27769
G0 F3600 X151.076 Y137.5
G1 F1800 X98.922 Y85.346 E195.73085
G0 F3600 X98.922 Y84.78
G1 F1800 X151.076 Y136.934 E198.18402
G0 F3600 X151.076 Y136.368
G1 F1800 X98.922 Y84.214 E200.63718
G0 F3600 X98.921 Y83.648
G1 F1800 X151.076 Y135.803 E203.09039
G0 F3600 X151.076 Y135.237
G1 F1800 X98.921 Y83.082 E205.5436
G0 F3600 X98.921 Y82.517
G1 F1800 X151.076 Y134.671 E207.99679
G0 F3600 X151.076 Y134.106
G1 F1800 X98.921 Y81.951 E210.45
G0 F3600 X98.921 Y81.385
G1 F1800 X151.076 Y133.54 E212.90321
G0 F3600 X151.076 Y132.974
G1 F1800 X98.921 Y80.819 E215.35642
G0 F3600 X98.921 Y80.254
G1 F1800 X151.076 Y132.409 E217.80964
G0 F3600 X151.076 Y131.843
G1 F1800 X98.921 Y79.688 E220.26285
G0 F3600 X98.921 Y79.122
G1 F1800 X151.076 Y131.277 E222.71606
G0 F3600 X151.076 Y130.712
G1 F1800 X98.921 Y78.557 E225.16927
G0 F3600 X98.921 Y77.991
G1 F1800 X151.076 Y130.146 E227.62248
G0 F3600 X151.076 Y129.58
G1 F1800 X98.921 Y77.425 E230.07569
G0 F3600 X98.921 Y76.86
G1 F1800 X151.076 Y129.014 E232.52888
G0 F3600 X151.076 Y128.449
G1 F1800 X98.921 Y76.294 E234.98209
G0 F3600 X98.921 Y75.728
G1 F1800 X151.076 Y127.883 E237.4353
G0 F3600 X151.076 Y127.317
G1 F1800 X98.921 Y75.163 E239.88849
G0 F3600 X98.921 Y74.597
G1 F1800 X151.076 Y126.752 E242.3417
G0 F3600 X151.076 Y126.186
G1 F1800 X98.921 Y74.031 E244.79491
G0 F3600 X98.921 Y73.466
G1 F1800 X151.076 Y125.62 E247.2481
G0 F3600 X151.076 Y125.055
G1 F1800 X98.921 Y72.9 E249.70131
G0 F3600 X98.921 Y72.334
G1 F1800 X151.076 Y124.489 E252.15452
G0 F3600 X151.076 Y123.923
G1 F1800 X98.921 Y71.769 E254.60771
G0 F3600 X98.921 Y71.203
G1 F1800 X151.076 Y123.358 E257.06092
G0 F3600 X151.076 Y122.792
G1 F1800 X98.921 Y70.637 E259.51413
G0 F3600 X98.921 Y70.071
G1 F1800 X151.076 Y122.226 E261.96734
G0 F3600 X151.076 Y121.661
G1 F1800 X98.921 Y69.506 E264.42056
G0 F3600 X98.921 Y68.94
G1 F1800 X151.076 Y121.095 E266.87377
G0 F3600 X151.076 Y120.529
G1 F1800 X98.921 Y68.374 E269.32698
G0 F3600 X98.921 Y67.809
G1 F1800 X151.076 Y119.963 E271.78017
G0 F3600 X151.076 Y119.398
G1 F1800 X98.921 Y67.243 E274.23338
G0 F3600 X98.921 Y66.677
G1 F1800 X151.076 Y118.832 E276.68659
G0 F3600 X151.076 Y118.266
G1 F1800 X98.921 Y66.112 E279.13978
G0 F3600 X98.921 Y65.546
G1 F1800 X151.076 Y117.701 E281.59299
G0 F3600 X151.076 Y117.135
G1 F1800 X98.921 Y64.98 E284.0462
G0 F3600 X98.921 Y64.415
G1 F1800 X151.076 Y116.569 E286.49939
G0 F3600 X151.076 Y116.004
G1 F1800 X98.921 Y63.849 E288.9526
G0 F3600 X98.921 Y63.283
G1 F1800 X151.076 Y115.438 E291.40581
G0 F3600 X151.076 Y114.872
G1 F1800 X98.921 Y62.718 E293.859
G0 F3600 X99.254 Y62.484
G1 F1800 X151.076 Y114.307 E296.29657
G0 F3600 X151.076 Y113.741
G1 F1800 X99.819 Y62.484 E298.70754
G0 F3600 X100.385 Y62.484
G1 F1800 X151.076 Y113.175 E301.09189
G0 F3600 X151.076 Y112.61
G1 F1800 X100.951 Y62.484 E303.44964
G0 F3600 X101.516 Y62.484
G1 F1800 X151.076 Y112.044 E305.78079
G0 F3600 X151.076 Y111.478
G1 F1800 X102.082 Y62.484 E308.08532
G0 F3600 X102.648 Y62.484
G1 F1800 X151.076 Y110.913 E310.36325
G0 F3600 X151.076 Y110.347
G1 F1800 X103.214 Y62.484 E312.61455
G0 F3600 X103.779 Y62.484
G1 F1800 X151.076 Y109.781 E314.83926
G0 F3600 X151.076 Y109.215
G1 F1800 X104.345 Y62.484 E317.03734
G0 F3600 X104.911 Y62.484
G1 F1800 X151.076 Y108.65 E319.20882
G0 F3600 X151.076 Y108.084
G1 F1800 X105.476 Y62.484 E321.35371
G0 F3600 X106.042 Y62.484
G1 F1800 X151.076 Y107.518 E323.47197
G0 F3600 X151.076 Y106.953
G1 F1800 X106.608 Y62.484 E325.56363
G0 F3600 X107.173 Y62.484
G1 F1800 X151.076 Y106.387 E327.62869
G0 F3600 X151.076 Y105.821
G1 F1800 X107.739 Y62.484 E329.66713
G0 F3600 X108.305 Y62.484
G1 F1800 X151.076 Y105.256 E331.67897
G0 F3600 X151.076 Y104.69
G1 F1800 X108.87 Y62.484 E333.66421
G0 F3600 X109.436 Y62.484
G1 F1800 X151.076 Y104.124 E335.62283
G0 F3600 X151.076 Y103.559
G1 F1800 X110.002 Y62.484 E337.55485
G0 F3600 X110.567 Y62.484
G1 F1800 X151.076 Y102.993 E339.46027
G0 F3600 X151.076 Y102.427
G1 F1800 X111.133 Y62.484 E341.33907
G0 F3600 X111.699 Y62.484
G1 F1800 X151.076 Y101.862 E343.19126
G0 F3600 X151.076 Y101.296
G1 F1800 X112.265 Y62.484 E345.01684
G0 F3600 X112.83 Y62.484
G1 F1800 X151.076 Y100.73 E346.81581
G0 F3600 X151.076 Y100.165
G1 F1800 X113.396 Y62.484 E348.58819
G0 F3600 X113.962 Y62.484
G1 F1800 X151.076 Y99.599 E350.33394
G0 F3600 X151.076 Y99.033
G1 F1800 X114.527 Y62.484 E352.05309
G0 F3600 X115.093 Y62.484
G1 F1800 X151.076 Y98.467 E353.74562
G0 F3600 X151.076 Y97.902
G1 F1800 X115.659 Y62.484 E355.41155
G0 F3600 X116.224 Y62.484
G1 F1800 X151.076 Y97.336 E357.05088
G0 F3600 X151.076 Y96.77
G1 F1800 X116.79 Y62.484 E358.66359
G0 F3600 X117.356 Y62.484
G1 F1800 X151.076 Y96.205 E360.2497
G0 F3600 X151.076 Y95.639
G1 F1800 X117.921 Y62.484 E361.80921
G0 F3600 X118.487 Y62.484
G1 F1800 X151.076 Y95.073 E363.3421
G0 F3600 X151.076 Y94.508
G1 F1800 X119.053 Y62.484 E364.84838
G0 F3600 X119.618 Y62.484
G1 F1800 X151.076 Y93.942 E366.32807
G0 F3600 X151.076 Y93.376
G1 F1800 X120.184 Y62.484 E367.78114
G0 F3600 X120.75 Y62.484
G1 F1800 X151.076 Y92.811 E369.2076
G0 F3600 X151.076 Y92.245
G1 F1800 X121.315 Y62.484 E370.60747
G0 F3600 X121.881 Y62.484
G1 F1800 X151.076 Y91.679 E371.98071
G0 F3600 X151.076 Y91.114
G1 F1800 X122.447 Y62.484 E373.32736
G0 F3600 X123.013 Y62.484
G1 F1800 X151.076 Y90.548 E374.64738
G0 F3600 X151.076 Y89.982
G1 F1800 X123.578 Y62.484 E375.9408
G0 F3600 X124.144 Y62.484
G1 F1800 X151.076 Y89.416 E377.2076
G0 F3600 X151.076 Y88.851
G1 F1800 X124.71 Y62.484 E378.4478
G0 F3600 X125.275 Y62.484
G1 F1800 X151.076 Y88.285 E379.6614
G0 F3600 X151.076 Y87.719
G1 F1800 X125.841 Y62.484 E380.84837
G0 F3600 X126.407 Y62.484
G1 F1800 X151.076 Y87.154 E382.00875
G0 F3600 X151.076 Y86.588
G1 F1800 X126.972 Y62.484 E383.14253
G0 F3600 X127.538 Y62.484
G1 F1800 X151.076 Y86.022 E384.24969
G0 F3600 X151.076 Y85.457
G1 F1800 X128.104 Y62.484 E385.33024
G0 F3600 X128.669 Y62.484
G1 F1800 X151.076 Y84.891 E386.3842
G0 F3600 X151.076 Y84.325
G1 F1800 X129.235 Y62.484 E387.41153
G0 F3600 X129.801 Y62.484
G1 F1800 X151.076 Y83.76 E388.41227
G0 F3600 X151.076 Y83.194
G1 F1800 X130.366 Y62.484 E389.3864
G0 F3600 X130.932 Y62.484
G1 F1800 X151.076 Y82.628 E390.33391
G0 F3600 X151.076 Y82.063
G1 F1800 X131.498 Y62.484 E391.25483
G0 F3600 X132.064 Y62.484
G1 F1800 X151.076 Y81.497 E392.14911
G0 F3600 X151.076 Y80.931
