;FLAVOR:Marlin
;TIME:10109
;Filament used: 6.73033m
;Layer height: 0.15
;MINX:94.219
;MINY:57.781
;MINZ:0.2
;MAXX:155.781
;MAXY:152.219
;MAXZ:8.75
;TARGET_MACHINE.NAME:Prusa i3 Mk3/Mk3s
;Generated with Cura_SteamEngine 5.7.1
M82 ;absolute extrusion mode
G21 ; set units to millimeters
G90 ; use absolute positioning
M82 ; absolute extrusion mode
M104 S200 ; set extruder temp
M140 S60 ; set bed temp
M190 S60 ; wait for bed temp
M109 S200 ; wait for extruder temp
G28 W ; home all without mesh bed level
G80 ; mesh bed leveling
G92 E0.0 ; reset extruder distance position
G1 Y-3.0 F1000.0 ; go outside print area
G1 X60.0 E9.0 F1000.0 ; intro line
G1 X100.0 E21.5 F1000.0 ; intro line
G92 E0.0 ; reset extruder distance position
G92 E0
G92 E0
G1 F2100 E-0.8
;LAYER_COUNT:58
;LAYER:0
M107
G0 F3600 X94.603 Y59.896 Z0.2
;TYPE:SKIRT
G1 F2100 E0
G1 F1800 X94.875 Y59.47 E0.01681
G1 X95.205 Y59.097 E0.03338
G1 X95.625 Y58.691 E0.0528
G1 X96.015 Y58.37 E0.0696
G1 X96.451 Y58.114 E0.08642
G1 X96.922 Y57.929 E0.10325
G1 X97.522 Y57.798 E0.12368
G1 X98.407 Y57.782 E0.15312
G1 X151.493 Y57.781 E1.91877
G1 X152.21 Y57.791 E1.94261
G1 X152.713 Y57.838 E1.95942
G1 X153.203 Y57.964 E1.97625
G1 X153.667 Y58.165 E1.99306
G1 X154.093 Y58.437 E2.00987
G1 X154.469 Y58.77 E2.02658
G1 X154.874 Y59.19 E2.04599
G1 X155.195 Y59.58 E2.06279
G1 X155.45 Y60.016 E2.07959
G1 X155.634 Y60.488 E2.09643
G1 X155.741 Y60.982 E2.11325
G1 X155.778 Y61.641 E2.1352
G1 X155.781 Y147.932 E5.00525
G1 X155.771 Y148.634 E5.0286
G1 X155.724 Y149.137 E5.0454
G1 X155.598 Y149.627 E5.06223
G1 X155.396 Y150.09 E5.07903
G1 X155.054 Y150.629 E5.10026
G1 X154.421 Y151.265 E5.13011
G1 X154.037 Y151.594 E5.14693
G1 X153.606 Y151.859 E5.16376
G1 X153.139 Y152.052 E5.18056
G1 X152.517 Y152.202 E5.20184
G1 X151.593 Y152.218 E5.23258
G1 X98.506 Y152.219 E6.99826
G1 X97.803 Y152.209 E7.02164
G1 X97.3 Y152.162 E7.03845
G1 X96.81 Y152.036 E7.05528
G1 X96.347 Y151.834 E7.07208
G1 X95.804 Y151.489 E7.09347
G1 X95.165 Y150.849 E7.12355
G1 X94.837 Y150.464 E7.14038
G1 X94.574 Y150.032 E7.1572
G1 X94.382 Y149.564 E7.17402
G1 X94.267 Y149.072 E7.19083
G1 X94.222 Y148.586 E7.20706
G1 X94.219 Y62.069 E10.08463
G1 X94.229 Y61.353 E10.10844
G1 X94.276 Y60.85 E10.12525
G1 X94.402 Y60.36 E10.14207
G1 X94.603 Y59.896 E10.15889
G1 F2100 E9.35889
;MESH:keychain.stl
G0 F3600 X97.079 Y61.722
G0 X98.157 Y61.721
G0 X100.299 Y70.102
G0 X100.609 Y71.124
G0 X101.111 Y72.064
G0 X101.788 Y72.889
G0 X102.613 Y73.566
G0 X105.665 Y74.943
G0 X105.637 Y74.644
;TYPE:WALL-INNER
G1 F2100 E10.15889
G1 F1800 X104.538 Y74.536 E10.19562
G1 X103.49 Y74.218 E10.23205
G1 X102.528 Y73.705 E10.26831
G1 X101.674 Y73.003 E10.30508
G1 X100.97 Y72.148 E10.34192
G1 X100.457 Y71.183 E10.37826
G1 X100.14 Y70.138 E10.41459
G1 X100.033 Y69.035 E10.45144
G1 X100.14 Y67.942 E10.48797
G1 X100.458 Y66.894 E10.5244
G1 X100.972 Y65.93 E10.56073
G1 X101.657 Y65.099 E10.59655
G1 X102.525 Y64.378 E10.63408
G1 X103.495 Y63.86 E10.67066
G1 X104.552 Y63.544 E10.70735
G1 X105.636 Y63.44 E10.74357
G1 X106.729 Y63.544 E10.78009
G1 X107.774 Y63.86 E10.8164
G1 X108.741 Y64.377 E10.85287
G1 X109.597 Y65.079 E10.88969
G1 X110.298 Y65.932 E10.92641
G1 X110.81 Y66.894 E10.96266
G1 X111.128 Y67.942 E10.99908
G1 X111.236 Y69.04 E11.03578
G1 X111.128 Y70.121 E11.07191
G1 X110.811 Y71.185 E11.10884
G1 X110.3 Y72.14 E11.14486
G1 X109.606 Y72.988 E11.18131
G1 X108.745 Y73.701 E11.21849
G1 X107.782 Y74.213 E11.25477
G1 X106.713 Y74.536 E11.29191
G1 X105.637 Y74.644 E11.32788
G0 F3600 X105.665 Y74.943
G0 X151.387 Y147.823
G0 X151.656 Y148.092
G1 F1800 X151.656 Y61.904 E14.1945
G1 X98.34 Y61.904 E15.9678
G1 X98.344 Y148.092 E18.83442
G1 X151.656 Y148.092 E20.60759
G0 F3600 X152.056 Y148.492
;TYPE:WALL-OUTER
G1 F1800 X152.056 Y61.504 E23.50082
G1 X97.94 Y61.504 E25.30072
G1 X97.944 Y148.492 E28.19396
G1 X152.056 Y148.492 E29.99373
G0 F3600 X152.056 Y148.292
G0 X151.387 Y147.823
G0 X105.547 Y74.937
G0 X105.616 Y74.24
G1 F1800 X104.636 Y74.144 E30.02648
G1 X103.625 Y73.837 E30.06162
G1 X102.765 Y73.377 E30.09406
G1 X101.945 Y72.703 E30.12936
G1 X101.295 Y71.907 E30.16355
G1 X100.824 Y71.015 E30.1971
G1 X100.532 Y70.04 E30.23095
G1 X100.436 Y69.02 E30.26502
G1 X100.532 Y68.04 E30.29777
G1 X100.839 Y67.029 E30.33292
G1 X101.317 Y66.14 E30.36649
G1 X101.952 Y65.369 E30.39971
G1 X102.765 Y64.703 E30.43466
G1 X103.661 Y64.228 E30.46839
G1 X104.621 Y63.938 E30.50175
G1 X105.636 Y63.84 E30.53566
G1 X106.632 Y63.936 E30.56894
G1 X107.643 Y64.243 E30.60409
G1 X108.503 Y64.703 E30.63653
G1 X109.323 Y65.376 E30.67181
G1 X109.973 Y66.173 E30.70601
G1 X110.444 Y67.065 E30.73956
G1 X110.736 Y68.04 E30.77342
G1 X110.832 Y69.06 E30.80749
G1 X110.734 Y70.054 E30.84071
G1 X110.437 Y71.034 E30.87477
G1 X109.956 Y71.934 E30.90871
G1 X109.305 Y72.723 E30.94273
G1 X108.515 Y73.37 E30.9767
G1 X107.626 Y73.845 E31.01022
G1 X106.646 Y74.142 E31.04428
G1 X105.616 Y74.24 E31.07869
G0 F3600 X105.418 Y74.221
G0 X105.349 Y74.917
G0 X151.276 Y147.712
;TYPE:SKIN
G1 F1800 X98.724 Y147.712 E32.82658
G1 X98.72 Y62.284 E35.66793
G1 X151.276 Y62.284 E37.41595
G1 X151.276 Y147.712 E40.25729
G0 F3600 X105.616 Y75.024
G1 F1800 X106.794 Y74.91 E40.29666
G1 X107.922 Y74.569 E40.33585
G1 X108.943 Y74.026 E40.37431
G1 X109.857 Y73.275 E40.41366
G1 X110.625 Y72.342 E40.45385
G1 X111.159 Y71.324 E40.49209
G1 X111.502 Y70.202 E40.53111
G1 X111.616 Y69.056 E40.56941
G1 X111.504 Y67.88 E40.6087
G1 X111.168 Y66.761 E40.64756
G1 X110.629 Y65.741 E40.68593
G1 X109.879 Y64.821 E40.72541
G1 X108.935 Y64.047 E40.76601
G1 X107.943 Y63.515 E40.80345
G1 X106.783 Y63.164 E40.84376
G1 X105.655 Y63.06 E40.88144
G1 X104.496 Y63.168 E40.92016
G1 X103.325 Y63.515 E40.96078
G1 X102.329 Y64.047 E40.99833
G1 X101.416 Y64.793 E41.03755
G1 X100.665 Y65.7 E41.07671
G1 X100.111 Y66.725 E41.11547
G1 X99.764 Y67.88 E41.15558
G1 X99.652 Y69.016 E41.19354
G1 X99.764 Y70.192 E41.23284
G1 X100.096 Y71.306 E41.2715
G1 X100.643 Y72.343 E41.31049
G1 X101.389 Y73.256 E41.34971
G1 X102.296 Y74.007 E41.38887
G1 X103.321 Y74.561 E41.42763
G1 X104.48 Y74.912 E41.4679
G1 X105.616 Y75.024 E41.50587
G0 F3600 X150.731 Y62.484
G1 F1800 X151.076 Y62.829 E41.5221
G0 F3600 X151.076 Y63.395
G1 F1800 X150.165 Y62.484 E41.56495
G0 F3600 X149.6 Y62.484
G1 F1800 X151.076 Y63.961 E41.6344
G0 F3600 X151.076 Y64.526
G1 F1800 X149.034 Y62.484 E41.73045
G0 F3600 X148.468 Y62.484
G1 F1800 X151.076 Y65.092 E41.85312
G0 F3600 X151.076 Y65.658
G1 F1800 X147.903 Y62.484 E42.00239
G0 F3600 X147.337 Y62.484
G1 F1800 X151.076 Y66.223 E42.17826
G0 F3600 X151.076 Y66.789
G1 F1800 X146.771 Y62.484 E42.38076
G0 F3600 X146.206 Y62.484
G1 F1800 X151.076 Y67.355 E42.60985
G0 F3600 X151.076 Y67.92
G1 F1800 X145.64 Y62.484 E42.86554
G0 F3600 X145.074 Y62.484
G1 F1800 X151.076 Y68.486 E43.14786
G0 F3600 X151.076 Y69.052
G1 F1800 X144.509 Y62.484 E43.45677
G0 F3600 X143.943 Y62.484
G1 F1800 X151.076 Y69.617 E43.79229
G0 F3600 X151.076 Y70.183
G1 F1800 X143.377 Y62.484 E44.15443
G0 F3600 X142.812 Y62.484
G1 F1800 X151.076 Y70.749 E44.54316
G0 F3600 X151.076 Y71.315
G1 F1800 X142.246 Y62.484 E44.95852
G0 F3600 X141.68 Y62.484
G1 F1800 X151.076 Y71.88 E45.40048
G0 F3600 X151.076 Y72.446
G1 F1800 X141.114 Y62.484 E45.86906
G0 F3600 X140.549 Y62.484
G1 F1800 X151.076 Y73.012 E46.36424
G0 F3600 X151.076 Y73.577
G1 F1800 X139.983 Y62.484 E46.88602
G0 F3600 X139.417 Y62.484
G1 F1800 X151.076 Y74.143 E47.43443
G0 F3600 X151.076 Y74.709
G1 F1800 X138.852 Y62.484 E48.00943
G0 F3600 X138.286 Y62.484
G1 F1800 X151.076 Y75.274 E48.61103
G0 F3600 X151.076 Y75.84
G1 F1800 X137.72 Y62.484 E49.23926
G0 F3600 X137.155 Y62.484
G1 F1800 X151.076 Y76.406 E49.89408
G0 F3600 X151.076 Y76.971
G1 F1800 X136.589 Y62.484 E50.57551
G0 F3600 X136.023 Y62.484
G1 F1800 X151.076 Y77.537 E51.28355
G0 F3600 X151.076 Y78.103
G1 F1800 X135.458 Y62.484 E52.0182
G0 F3600 X134.892 Y62.484
G1 F1800 X151.076 Y78.668 E52.77945
G0 F3600 X151.076 Y79.234
G1 F1800 X134.326 Y62.484 E53.56732
G0 F3600 X133.761 Y62.484
G1 F1800 X151.076 Y79.8 E54.38178
G0 F3600 X151.076 Y80.366
G1 F1800 X133.195 Y62.484 E55.22287
G0 F3600 X132.629 Y62.484
G1 F1800 X151.076 Y80.931 E56.09056
G0 F3600 X151.076 Y81.497
G1 F1800 X132.064 Y62.484 E56.98485
G0 F3600 X131.498 Y62.484
G1 F1800 X151.076 Y82.063 E57.90577
G0 F3600 X151.076 Y82.628
G1 F1800 X130.932 Y62.484 E58.85328
G0 F3600 X130.366 Y62.484
G1 F1800 X151.076 Y83.194 E59.82741
G0 F3600 X151.076 Y83.76
G1 F1800 X129.801 Y62.484 E60.82815
G0 F3600 X129.235 Y62.484
G1 F1800 X151.076 Y84.325 E61.85548
G0 F3600 X151.076 Y84.891
G1 F1800 X128.669 Y62.484 E62.90944
G0 F3600 X128.104 Y62.484
G1 F1800 X151.076 Y85.457 E63.98999
G0 F3600 X151.076 Y86.022
G1 F1800 X127.538 Y62.484 E65.09715
G0 F3600 X126.972 Y62.484
G1 F1800 X151.076 Y86.588 E66.23093
G0 F3600 X151.076 Y87.154
G1 F1800 X126.407 Y62.484 E67.39131
G0 F3600 X125.841 Y62.484
G1 F1800 X151.076 Y87.719 E68.57828
G0 F3600 X151.076 Y88.285
G1 F1800 X125.275 Y62.484 E69.79188
G0 F3600 X124.71 Y62.484
G1 F1800 X151.076 Y88.851 E71.03208
G0 F3600 X151.076 Y89.416
G1 F1800 X124.144 Y62.484 E72.29888
G0 F3600 X123.578 Y62.484
G1 F1800 X151.076 Y89.982 E73.5923
G0 F3600 X151.076 Y90.548
G1 F1800 X123.013 Y62.484 E74.91232
G0 F3600 X122.447 Y62.484
G1 F1800 X151.076 Y91.114 E76.25897
G0 F3600 X151.076 Y91.679
G1 F1800 X121.881 Y62.484 E77.63221
G0 F3600 X121.315 Y62.484
G1 F1800 X151.076 Y92.245 E79.03208
G0 F3600 X151.076 Y92.811
G1 F1800 X120.75 Y62.484 E80.45854
G0 F3600 X120.184 Y62.484
G1 F1800 X151.076 Y93.376 E81.91161
G0 F3600 X151.076 Y93.942
G1 F1800 X119.618 Y62.484 E83.3913
G0 F3600 X119.053 Y62.484
G1 F1800 X151.076 Y94.508 E84.89758
G0 F3600 X151.076 Y95.073
G1 F1800 X118.487 Y62.484 E86.43047
G0 F3600 X117.921 Y62.484
G1 F1800 X151.076 Y95.639 E87.98998
G0 F3600 X151.076 Y96.205
G1 F1800 X117.356 Y62.484 E89.57609
G0 F3600 X116.79 Y62.484
G1 F1800 X151.076 Y96.77 E91.1888
G0 F3600 X151.076 Y97.336
G1 F1800 X116.224 Y62.484 E92.82813
G0 F3600 X115.659 Y62.484
G1 F1800 X151.076 Y97.902 E94.49406
G0 F3600 X151.076 Y98.467
G1 F1800 X115.093 Y62.484 E96.18659
G0 F3600 X114.527 Y62.484
G1 F1800 X151.076 Y99.033 E97.90574
G0 F3600 X151.076 Y99.599
G1 F1800 X113.962 Y62.484 E99.65149
G0 F3600 X113.396 Y62.484
G1 F1800 X151.076 Y100.165 E101.42387
G0 F3600 X151.076 Y100.73
G1 F1800 X112.83 Y62.484 E103.22284
G0 F3600 X112.265 Y62.484
G1 F1800 X151.076 Y101.296 E105.04842
G0 F3600 X151.076 Y101.862
G1 F1800 X111.699 Y62.484 E106.90061
G0 F3600 X111.133 Y62.484
G1 F1800 X151.076 Y102.427 E108.77941
G0 F3600 X151.076 Y102.993
G1 F1800 X110.567 Y62.484 E110.68483
G0 F3600 X110.002 Y62.484
G1 F1800 X151.076 Y103.559 E112.61685
G0 F3600 X151.076 Y104.124
G1 F1800 X109.436 Y62.484 E114.57547
G0 F3600 X108.87 Y62.484
G1 F1800 X151.076 Y104.69 E116.56071
G0 F3600 X151.076 Y105.256
G1 F1800 X108.305 Y62.484 E118.57255
G0 F3600 X107.739 Y62.484
G1 F1800 X109.508 Y64.253 E118.65575
G1 X109.578 Y64.323
G0 F3600 X110.423 Y65.168
G1 F1800 X151.076 Y105.821 E120.56795
G0 F3600 X151.076 Y106.387
G1 F1800 X111.34 Y66.651 E122.43701
G1 X111.27 Y66.581
G0 F3600 X111.591 Y67.467
G1 F1800 X151.076 Y106.953 E124.29428
G0 F3600 X151.076 Y107.518
G1 F1800 X111.733 Y68.176 E126.14483
G0 F3600 X111.796 Y68.804
G1 F1800 X151.076 Y108.084 E127.99245
G0 F3600 X151.076 Y108.65
G1 F1800 X111.787 Y69.36 E129.8405
G0 F3600 X111.735 Y69.874
G1 F1800 X151.076 Y109.215 E131.69098
G0 F3600 X151.076 Y109.781
G1 F1800 X111.659 Y70.364 E133.54504
G0 F3600 X111.526 Y70.797
G1 F1800 X151.076 Y110.347 E135.40535
G0 F3600 X151.076 Y110.913
G1 F1800 X111.393 Y71.23 E137.27191
G0 F3600 X111.225 Y71.627
G1 F1800 X151.076 Y111.478 E139.14638
G0 F3600 X151.076 Y112.044
G1 F1800 X111.03 Y71.998 E141.03002
G0 F3600 X110.835 Y72.368
G1 F1800 X151.076 Y112.61 E142.92286
G0 F3600 X151.076 Y113.175
G1 F1800 X110.594 Y72.693 E144.82701
G0 F3600 X110.339 Y73.004
G1 F1800 X151.076 Y113.741 E146.74315
G0 F3600 X151.076 Y114.307
G1 F1800 X110.084 Y73.314 E148.67132
G0 F3600 X109.79 Y73.586
G1 F1800 X151.076 Y114.872 E150.61328
G0 F3600 X151.076 Y115.438
G1 F1800 X109.481 Y73.842 E152.56981
G0 F3600 X109.171 Y74.098
G1 F1800 X151.076 Y116.004 E154.54091
G0 F3600 X151.076 Y116.569
G1 F1800 X108.822 Y74.316 E156.52839
G0 F3600 X108.453 Y74.512
G1 F1800 X151.076 Y117.135 E158.53324
G0 F3600 X151.076 Y117.701
G1 F1800 X108.084 Y74.709 E160.55546
G0 F3600 X107.665 Y74.856
G1 F1800 X151.076 Y118.266 E162.59735
G0 F3600 X151.076 Y118.832
G1 F1800 X107.232 Y74.988 E164.65964
G0 F3600 X106.788 Y75.11
G1 F1800 X151.076 Y119.398 E166.74281
G0 F3600 X151.076 Y119.963
G1 F1800 X106.273 Y75.161 E168.85018
G0 F3600 X105.759 Y75.212
G1 F1800 X151.076 Y120.529 E170.98176
G0 F3600 X151.076 Y121.095
G1 F1800 X105.16 Y75.178 E173.14153
G0 F3600 X104.534 Y75.119
G1 F1800 X151.076 Y121.661 E175.33072
G0 F3600 X151.076 Y122.226
G1 F1800 X103.754 Y74.905 E177.55658
G1 X103.684 Y74.835
G0 F3600 X102.783 Y74.499
G1 F1800 X151.076 Y122.792 E179.82813
G0 F3600 X151.076 Y123.358
G1 F1800 X98.92 Y71.201 E182.28142
G0 F3600 X98.92 Y70.636
G1 F1800 X100.177 Y71.893 E182.34054
G1 X100.247 Y71.963
G0 F3600 X99.771 Y70.921
G1 F1800 X98.92 Y70.07 E182.38057
G0 F3600 X98.92 Y69.504
G1 F1800 X99.559 Y70.143 E182.41063
G0 F3600 X99.497 Y69.516
G1 F1800 X98.92 Y68.939 E182.43777
G0 F3600 X99.462 Y68.915
G1 F1800 X98.92 Y68.373 E182.46326
G0 F3600 X98.92 Y67.807
G1 F1800 X99.513 Y68.4 E182.49115
G0 F3600 X99.563 Y67.885
G1 F1800 X98.92 Y67.242 E182.5214
G0 F3600 X98.92 Y66.676
G1 F1800 X99.684 Y67.44 E182.55733
G0 F3600 X99.814 Y67.005
G1 F1800 X98.92 Y66.11 E182.59941
G0 F3600 X98.92 Y65.545
G1 F1800 X99.96 Y66.585 E182.64833
G0 F3600 X100.157 Y66.216
G1 F1800 X98.92 Y64.979 E182.70651
G0 F3600 X98.92 Y64.413
G1 F1800 X100.355 Y65.848 E182.77401
G0 F3600 X100.572 Y65.499
G1 F1800 X98.92 Y63.847 E182.85172
G0 F3600 X98.92 Y63.282
G1 F1800 X100.827 Y65.189 E182.94141
G0 F3600 X101.083 Y64.879
G1 F1800 X98.92 Y62.716 E183.04316
G0 F3600 X99.254 Y62.484
G1 F1800 X101.357 Y64.588 E183.1421
G0 F3600 X101.666 Y64.331
G1 F1800 X99.819 Y62.484 E183.22898
G0 F3600 X100.385 Y62.484
G1 F1800 X101.976 Y64.075 E183.30381
G0 F3600 X102.301 Y63.835
G1 F1800 X100.951 Y62.484 E183.36733
G0 F3600 X101.516 Y62.484
G1 F1800 X102.67 Y63.638 E183.42161
G0 F3600 X103.039 Y63.441
G1 F1800 X102.082 Y62.484 E183.46663
G0 F3600 X102.648 Y62.484
G1 F1800 X103.433 Y63.27 E183.50358
G0 F3600 X103.87 Y63.14
G1 F1800 X103.214 Y62.484 E183.53443
G0 F3600 X103.779 Y62.484
G1 F1800 X104.307 Y63.012 E183.55927
G0 F3600 X104.799 Y62.938
G1 F1800 X104.345 Y62.484 E183.58062
G0 F3600 X104.911 Y62.484
G1 F1800 X105.316 Y62.89 E183.5997
G0 F3600 X105.476 Y62.484
G1 F1800 X105.874 Y62.882 E183.61842
G0 F3600 X106.042 Y62.484
G1 F1800 X106.495 Y62.937 E183.63973
G0 F3600 X106.608 Y62.484
G1 F1800 X107.201 Y63.077 E183.66762
G0 F3600 X107.173 Y62.484
G1 F1800 X108.017 Y63.328 E183.70732
G1 X108.087 Y63.398
G0 F3600 X105.636 Y63.198
G0 X104.496 Y63.311
G0 X103.399 Y63.643
G0 X102.389 Y64.183
G0 X101.504 Y64.91
G0 X100.777 Y65.795
G0 X100.237 Y66.805
G0 X98.92 Y71.767
G1 F1800 X151.076 Y123.923 E186.16058
G0 F3600 X151.076 Y124.489
G1 F1800 X98.92 Y72.333 E188.61383
G0 F3600 X98.92 Y72.898
G1 F1800 X151.076 Y125.055 E191.06712
G0 F3600 X151.076 Y125.62
G1 F1800 X98.92 Y73.464 E193.52037
G0 F3600 X98.92 Y74.03
G1 F1800 X151.076 Y126.186 E195.97363
G0 F3600 X151.076 Y126.752
G1 F1800 X98.92 Y74.596 E198.42689
G0 F3600 X98.92 Y75.161
G1 F1800 X151.076 Y127.317 E200.88015
G0 F3600 X151.076 Y127.883
G1 F1800 X98.92 Y75.727 E203.33341
G0 F3600 X98.92 Y76.293
G1 F1800 X151.076 Y128.449 E205.78667
G0 F3600 X151.076 Y129.014
G1 F1800 X98.921 Y76.859 E208.23988
G0 F3600 X98.921 Y77.425
G1 F1800 X151.076 Y129.58 E210.69309
G0 F3600 X151.076 Y130.146
G1 F1800 X98.921 Y77.99 E213.14632
G0 F3600 X98.921 Y78.556
G1 F1800 X151.076 Y130.712 E215.59956
G0 F3600 X151.076 Y131.277
G1 F1800 X98.921 Y79.122 E218.05277
G0 F3600 X98.921 Y79.687
G1 F1800 X151.076 Y131.843 E220.506
G0 F3600 X151.076 Y132.409
G1 F1800 X98.921 Y80.253 E222.95924
G0 F3600 X98.921 Y80.819
